X:1
T:Miss Dumbreck
C:Gow's Sixth Coll.
R:reel
B:RSCDS 25-11
Z:Anselm Lingnau <anselm@strathspey.org>
M:C
L:1/8
K:A
e |:\
"A"dcBA A2ce | "D"fe"A"ce "D"fg"A"ae |\
[1 "F#m"dcBA "A"A2ec | "E"BGEG "E7"Bcde :|\
["D"agae "Bm"dcBA | "E"GEBG dBGB ||
|:\
"A"A2ce aece | aece aecA |\
[1 "E"E2GB ef^df | "B7"ef^df "D7"e=dcB :|\
[2 "D"Fd"A"Ec "Bm"DB"A"CA | "E7"EFGA Bcde :|
["End" "E7"EFGB "A"A2A |]
